src/components/Icon/assets/chat-check-filled.svg

<svg width="24" height="24" viewBox="0 0 24 24" fill="none" xmlns="http://www.w3.org/2000/svg">
<path fill-rule="evenodd" clip-rule="evenodd" d="M20.8223 16.683C20.5763 17.144 20.5573 17.694 20.7233 18.19L21.3613 20.105C21.6223 20.886 20.8793 21.63 20.0973 21.37C19.6395 21.2172 19.1583 21.0569 18.7279 20.9135C18.5302 20.8476 18.3433 20.7853 18.1743 20.729C17.6813 20.565 17.1373 20.584 16.6783 20.829C14.7293 21.868 12.4033 22.29 9.94729 21.796C5.94629 20.991 2.78229 17.703 2.12929 13.675C1.02329 6.848 6.83729 1.033 13.6643 2.137C17.6933 2.789 20.9823 5.954 21.7873 9.954C22.2813 12.409 21.8613 14.734 20.8223 16.683ZM7.36248 10.978L10.4035 13.898L16.5805 8.09401L17.9495 9.55101L10.3885 16.657L5.97748 12.421L7.36248 10.978Z" fill="#65676A"/>
</svg>

<svg xmlns="http://www.w3.org/2000/svg" width="24" height="24" viewBox="0 0 24 24">
    <path fill="#65676A" fill-rule="evenodd" d="M2.13 13.675C1.022 6.848 6.836 1.033 13.663 2.137c4.03.652 7.318 3.817 8.123 7.817.494 2.455.074 4.78-.965 6.729-.246.461-.265 1.011-.099 1.507l.638 1.915c.261.781-.482 1.525-1.264 1.265l-1.923-.641c-.493-.164-1.037-.145-1.496.1-1.949 1.039-4.275 1.461-6.73.967-4.002-.805-7.166-4.093-7.819-8.121zm14.45-5.581l-6.176 5.804-3.042-2.92-1.385 1.443 4.412 4.236 7.56-7.106-1.369-1.457z"/>
</svg>
